packages/core/src/svgs/fuse.svg

<svg width="24" height="24" viewBox="0 0 24 24" fill="none" xmlns="http://www.w3.org/2000/svg">
<g clip-path="url(#clip0_31_10562)">
<path d="M0 0H24V24H0V0Z" fill="url(#paint0_linear_31_10562)"/>
<path d="M9.71143 6.42843L11.9057 5.16843C11.9365 5.15116 11.9712 5.14209 12.0064 5.14209C12.0417 5.14209 12.0764 5.15116 12.1071 5.16843L17.8929 8.48986C17.9529 8.52414 18 8.59272 18 8.66129V10.9456C18 11.0184 17.9614 11.087 17.8971 11.117L15.7114 12.377C15.5743 12.4584 15.4286 12.3599 15.4286 12.2056V10.157C15.4286 10.0841 15.3557 10.0199 15.2957 9.98557L9.71143 6.77986C9.6802 6.76236 9.65421 6.73685 9.63611 6.70597C9.61802 6.67509 9.60848 6.63994 9.60848 6.60414C9.60848 6.56835 9.61802 6.5332 9.63611 6.50232C9.65421 6.47143 9.6802 6.44593 9.71143 6.42843ZM8.29286 16.7699L6.10286 15.5099C6.07228 15.4927 6.0467 15.4679 6.02866 15.4378C6.01062 15.4077 6.00074 15.3735 6 15.3384V8.69557C6 8.627 6.03857 8.55843 6.10286 8.52414L8.08714 7.37557C8.11776 7.35789 8.1525 7.34859 8.18786 7.34859C8.22322 7.34859 8.25795 7.35789 8.28857 7.37557L10.4786 8.63129C10.6157 8.71272 10.6157 8.90557 10.4786 8.98272L8.7 10.0113C8.63571 10.0499 8.57143 10.1141 8.57143 10.1827V16.5984C8.57143 16.7527 8.43 16.847 8.29286 16.7699ZM18 12.8141V15.3341C18 15.407 17.9614 15.4756 17.8971 15.5099L12.1414 18.8313C12.1113 18.8482 12.0774 18.8571 12.0429 18.8571C12.0083 18.8571 11.9744 18.8482 11.9443 18.8313L9.96 17.6956C9.92942 17.6784 9.90384 17.6536 9.8858 17.6235C9.86776 17.5935 9.85788 17.5592 9.85714 17.5241V14.9999C9.85714 14.8456 10.0286 14.747 10.1571 14.8284L11.94 15.8441C12 15.8784 12.0771 15.8784 12.1414 15.8441L17.6957 12.6384C17.8329 12.5613 17.9957 12.6599 17.9957 12.8099H18V12.8141Z" fill="#B4F9B9"/>
</g>
<defs>
<linearGradient id="paint0_linear_31_10562" x1="4.46571" y1="4.16143" x2="29.2071" y2="32.58" gradientUnits="userSpaceOnUse">
<stop stop-color="#1A1E21"/>
<stop offset="1" stop-color="#06060A"/>
</linearGradient>
<clipPath id="clip0_31_10562">
<rect width="24" height="24" fill="white"/>
</clipPath>
</defs>
</svg>

<svg xmlns="http://www.w3.org/2000/svg" width="24" height="24" fill="none" viewBox="0 0 24 24"><g clip-path="url(#a)"><path fill="url(#b)" d="M0 0h24v24H0z"/><path fill="#B4F9B9" d="m9.711 6.428 2.195-1.26a.2.2 0 0 1 .201 0l5.786 3.322A.21.21 0 0 1 18 8.66v2.285a.19.19 0 0 1-.103.171l-2.186 1.26c-.137.081-.282-.017-.282-.171v-2.049c0-.073-.073-.137-.133-.171L9.71 6.78a.201.201 0 0 1 0-.352M8.293 16.77l-2.19-1.26A.2.2 0 0 1 6 15.338V8.696c0-.069.039-.138.103-.172l1.984-1.148a.2.2 0 0 1 .202 0l2.19 1.255a.202.202 0 0 1 0 .352L8.7 10.01c-.064.039-.129.103-.129.172v6.415c0 .155-.141.249-.278.172M18 12.814v2.52a.2.2 0 0 1-.103.176l-5.756 3.321a.2.2 0 0 1-.197 0L9.96 17.696a.2.2 0 0 1-.103-.172V15c0-.154.172-.253.3-.172l1.783 1.016a.21.21 0 0 0 .201 0l5.555-3.206a.2.2 0 0 1 .3.172H18z"/></g><defs><linearGradient id="b" x1="4.466" x2="29.207" y1="4.161" y2="32.58" gradientUnits="userSpaceOnUse"><stop stop-color="#1A1E21"/><stop offset="1" stop-color="#06060A"/></linearGradient><clipPath id="a"><path fill="#fff" d="M0 0h24v24H0z"/></clipPath></defs></svg>
